X:188
T: Tae the Beggin
D: Kevin Crawford, Ossian
M:4/4
L:1/8
K:BMinor
g fg agfg | gefg dB (3BBB | g fg agfg|1 geed e3 f :|2 geed e3 z |
dB (3BBB dGBd | dGBd cABc | dB (3BBB dGBd | ggfd e3 g :|
